mimetypes/scalable/application-vnd.snap.svg

<?xml version="1.0" standalone="no"?><!-- Generator: Gravit.io --><svg xmlns="http://www.w3.org/2000/svg" xmlns:xlink="http://www.w3.org/1999/xlink" style="isolation:isolate" viewBox="0 0 256 256" width="256" height="256"><switch><g><g id="application-mimetype"><g opacity="0.2"><path d=" M 78.924321 15.500025 C 43.627596 15.500025 39.829708 19.125398 40.002695 54.49353 L 40.002695 127.500014 L 40.002695 200.506441 C 39.829708 235.874573 43.627596 239.500004 78.924321 239.500004 L 177.081083 239.500004 C 212.377805 239.500004 216.002702 235.875035 216.002702 200.506441 L 216.002702 127.500014 L 216.002702 54.49353 C 216.002702 19.124994 212.377805 15.500025 177.081083 15.500025 L 78.924321 15.500025 Z " id="path1163" fill="none" vector-effect="non-scaling-stroke" stroke-width="4" stroke="rgb(0,0,0)" stroke-linejoin="miter" stroke-linecap="butt" stroke-miterlimit="4"/></g><defs><filter id="GJpkgtAPdxf8lWbRtB2GgSdwCmECmAsN" x="-200%" y="-200%" width="400%" height="400%" filterUnits="objectBoundingBox" color-interpolation-filters="sRGB"><feGaussianBlur xmlns="http://www.w3.org/2000/svg" stdDeviation="2.120027"/></filter></defs><g opacity="0.1" filter="url(#GJpkgtAPdxf8lWbRtB2GgSdwCmECmAsN)"><path d=" M 78.924315 16.5 C 43.627592 16.5 39.82971 20.125416 40.002699 55.493531 L 40.002699 128.5 L 40.002699 201.50647 C 39.82971 236.874573 43.627592 240.500001 78.924315 240.500001 L 177.081083 240.500001 C 212.377806 240.500001 215.084425 236.863068 216.002699 201.50647 L 216.002699 128.5 L 216.002699 55.493531 C 216.002699 20.124997 212.377806 16.5 177.081083 16.5 L 78.924315 16.5 Z " id="shadow" fill="rgb(0,0,0)"/></g><defs><filter id="URhwOZainRRdQROUUPAFMquBuUMgkNAJ" x="-200%" y="-200%" width="400%" height="400%" filterUnits="objectBoundingBox" color-interpolation-filters="sRGB"><feGaussianBlur xmlns="http://www.w3.org/2000/svg" stdDeviation="8.4801079"/></filter></defs><g opacity="0.3" filter="url(#URhwOZainRRdQROUUPAFMquBuUMgkNAJ)"><linearGradient id="_lgradient_132" x1="-0.0681490711308741" y1="0.03125" x2="0.9537210324437329" y2="1.0531201035746074" gradientTransform="matrix(176.005396,0,0,224,39.997303,16.5)" gradientUnits="userSpaceOnUse"><stop offset="0%" stop-opacity="0.58823532" style="stop-color:rgb(0,0,0)"/><stop offset="88%" stop-opacity="0" style="stop-color:rgb(0,0,0)"/><stop offset="100%" stop-opacity="1" style="stop-color:rgb(0,0,0)"/></linearGradient><path d=" M 78.924315 16.5 C 43.627592 16.5 39.82971 20.125416 40.002699 55.493531 L 40.002699 128.5 L 40.002699 201.50647 C 39.82971 236.874573 43.627592 240.500001 78.924315 240.500001 L 177.081083 240.500001 C 212.377806 240.500001 216.002699 236.875001 216.002699 201.50647 L 216.002699 128.5 L 216.002699 55.493531 C 216.002699 20.124997 212.377806 16.5 177.081083 16.5 L 78.924315 16.5 Z " id="blur" fill="url(#_lgradient_132)"/></g><path d=" M 78.924321 15.500025 C 43.627596 15.500025 39.829708 19.125398 40.002695 54.49353 L 40.002695 127.500014 L 40.002695 200.506441 C 39.829708 235.874573 43.627596 239.500004 78.924321 239.500004 L 177.081083 239.500004 C 212.377805 239.500004 216.002702 235.875035 216.002702 200.506441 L 216.002702 127.500014 L 216.002702 54.49353 C 216.002702 19.124994 212.377805 15.500025 177.081083 15.500025 L 78.924321 15.500025 Z " id="shape" fill="rgb(93,93,93)"/><g opacity="0.6"><path d=" M 78.924573 15.500025 C 43.627848 15.500025 39.829708 19.126032 40.002695 54.494165 L 40.002695 56.494138 C 39.829708 21.126005 43.627848 17.499998 78.924573 17.499998 L 177.080824 17.499998 C 212.377545 17.499998 216.002702 21.125601 216.002702 56.494138 L 216.002702 54.494165 C 216.002702 19.125571 212.377545 15.500025 177.080824 15.500025 L 78.924573 15.500025 Z " id="highlight" fill="rgb(255,255,255)"/></g><g opacity="0.1"><path d=" M 128.002691 15.500025 L 128.002691 239.500004 L 177.080824 239.500004 C 212.377531 239.500004 215.084421 235.863501 216.002702 200.506787 L 216.002702 127.500014 L 216.002702 54.493184 C 216.002702 19.124648 212.377531 15.500025 177.080824 15.500025 L 128.002691 15.500025 Z " id="right highlight" fill="rgb(255,255,255)"/></g><g opacity="0.2"><path d=" M 156.002703 239.500004 L 216.002702 179.500005 L 216.002702 201.983857 C 215.950394 235.97965 212.200019 239.500004 177.828601 239.500004 L 156.002703 239.500004 Z " id="clip" fill="rgb(255,255,255)"/></g></g><path d=" M 66.996097 70.833984 L 133.125003 136.962969 L 133.125003 94.675815 L 66.996097 70.833984 Z " id="wing" fill="rgb(81,187,141)"/><path d=" M 137.187493 96.484435 L 137.187493 134.914149 L 164.767574 109.021479 L 137.187493 96.484435 Z " id="abdomen" fill="rgb(81,187,141)"/><path d=" M 117.478511 127.496157 L 86.919925 185.166016 L 131.248042 140.835924 L 117.478511 127.496157 Z " id="feet" fill="rgb(81,187,141)"/><path d=" M 143.134759 94.972705 L 189.003903 115.591822 L 178.906242 94.972705 L 143.134759 94.972705 Z " id="head" fill="rgb(251,124,56)"/></g><foreignObject requiredExtensions="http://ns.gravit.io/"><gravitDesigner:gravitElementRef xmlns:gravitDesigner="http://ns.gravit.io/" xlink:href="#NhrB3sD0KhRiEblz1AQtu0VUrJb5EDwg"/></foreignObject></switch><gravitDesigner:gravitGraphicSource xmlns:gravitDesigner="http://ns.gravit.io/" id="NhrB3sD0KhRiEblz1AQtu0VUrJb5EDwg" version="1"><![CDATA[eMKcw41aacKTw6LDhsKWw70rE3hiPsK1w5vDmhdHTMOEaMOfNxAgZDsmwrTDrwjCrUjCvMOwfx9BF0XDkcKvw61Xw71sT8K7KAXCkMOKe8KVdzknw6/DjcKqf8Ksw75nw7XDo8Oqw6Qlw5HDqsODw6o/Vz/DvsO0wo/Dm0DDksOWw4PDqWnDpMOkw7XDqTIQwpR1F8KFwqsfw7t2wog+wqxOfcK3TMO4aQV7RmnCrU/CksK3w5XDvnvCmcO0w51yEcOQwpYKRMOqw5IHw5xawpVMDT4EwoLCk2ViZsOvaHHCr8OGw4sUccK5w6LCsANfJX/DucOww5PCisKTwrTDisOaGm4AwrzCqkrCil13QUbCm8K/woTDmsKOASp6U8Okw6nDhXJmCcOWfMOPaMKXKcOXwqXClURQWl5BesOFW1VrFEwewqrCtsOTen8aaj4qwpEJw5kNUDnDgR3DoMO0fsOiw616QsOjw7HCh8KcW8KHw7nDgxrDhsKmEzjDmsOlw6pRKBt7w6QqwoFHeHs6wpxiL8KAw447w7/DhcKaw5sSw7bCsVrDnMKtwrk5ZkMKRcOxwqrCqgdiehjDncO4NBx9wqbDs8O1PlPDiyPCsydqwoxMQsOTw4lewqzCuTnDpi55U8KFa8KYwpU9wqnCosKqw60xa8OyZmDDiRbDsCTCsV8TG2zDo8KFwpLDgcOmfsOow7YvwqvDghM0ecKVwrzCqmIWS8Ksw5PCk8KBw75AwoNVw4vDqMO+woXDiHZbGRbCisKLw6fDmMOFwrnDnhkabWDDjsOLwqpuwpLDlcO4MMOwNsKQPsO5GE9aMXQvwr02SsKLfyliS8OAJ8OFVU7Dq8KBQ8O9w7UQPsOkworCpzATFMKfwoM7HsOAAzXCqTV0LVwALWtPeDnCpsKDwpcqw5zCizU3w4lGesKEw7nDpsKYw7Qpw7nDmMOSQ1UswoZCw5BGwqPCncKtHsKmYy1GwqDDnA0yf8OwT8OEwos1N8OHw5wlf8O5w6XDg8Kqwo3Don7Dqlc/HsKHwrLCvH3Ds8KOQVrCt8OXJF/DrsO2bcK8fMKAP8OiOMKJQjjCgmEAworCkDDCgn4AwpbDl8KXwoY/YhgJYiABw6AEDi7Crw/DnxMYw7YRJBEYw4MgCMKDQRJfw5Qewr0qegEYCGLDsMKywq7Dv8Otw7rDusK0w7oRw7gILcKfS2/CjsKuK8K4w4MwO8O2w6rCp8KhwrfDsMKMwrPCsjRfw69ddcKcFjtWw4x3P10XB8O8ch0ZFy3CsVd2w5HCrx8+CcO5dRtGw63Cs8KYf17DvQh/JG8/OMOww6kHw4fCrjfDisOgKjLDtMO9bVpVwq5+RMO+w7kxwr8uBsO9w5cyEnASNcK4wptjwoJdw4gmw6XCvC3CsMK4wr/DqTLDrMK4wo7DjDE7wqx+XWTCozjClhYuWcKtFVvCi1zCssOdb8OaZBIYw5QLLcKFwpjDqMOEHcKpGQx0YHVfw7DDr8KTUB/CkMOWwpnCokpOwrrDp8KBMsOQfg/DlRNKwp5adlZPFFw7Wk0Uwp1vSzBhw5cvKcKFwoo/DFbDsiJ5TSnCimITwqtlCcO+wpHCncO2w5bChE4CMsK6wqXDmMKdPcODMsOnKsOFM8ORw4AFwobDoMO3A8O0wpJSMMKHw4dWBVF1w7FWw5VVw7cjO8OFLsOuw5bCh8OLflfCjsKGeMOBw6ltwqHDqsK5wr8Gw4hyw6rCpXVDPsOkwprChMKGH3AfD8OgAcOqN0QFw5nCjsK/MxTCrUfDm3BMUG7DnltWSsOKL8OWw5zCljAqI8OFWS8Awrk5wobCocKow4LCusKrcnxawq07S1rCnsKHTMKOJMONMzrCjcOMRVBJw47DoER3w7diw40nw4fCvEjDnsKocW3Dk8KfwqnCusOkwrMew458aDJqQsKBYXbDkUXCtcOfw5bCtGjDpQoSwrnDgsOLwqpowogtXiVfDMKsLcOsw4nDgMKOwp13AUjDm8OJbATCgsOfwpPDjcOBw5FwwpRuwoIcPmhzecKnRsKcwrbCjxZcDcKvBsOeVMKdwp98XF80wp4dw6Fyw5w2woDDlsKNQsONwrFkBMOZYywMwpIpwpvCl8KHHMO+FMOmasOvOMOswqEqSGxAdiXDpsOMw7LCqDJwwrPDhWxPwopKw5Z5wrHDpibDuQPDucODa8KYPznDpinDucO8wrErJiXDk8OxKMOKwopEK8KTwrg+WsOrw4swwrEDQ8OSwoHDvWLDjSfDh8OcwpPDr8KdJAR8RF/CsAlAV8OWQcKxGwl9YcO4exBdw5DCjMODAAhAGAhBBAh/w7geAj4iN8KEYzACwqILVyEPHsOqUi/CrMOPb1kIw7zDs1jDqF8xD8O4w7HCvn4AJQEUBcKhdzPDjxPDgcK9wrDDkMK6wo8twp7Ds8KKw7Qowq7CvcO8aEQxwo96wr4ww64iW8KGwr0jfGfCocK7XcOLw4cow6jCn23DssOLwqHDpW7Do8OLcMK7PMO6IwnDoxgMwpNXUsOHcMOww74swq3CksKERigdMcOVNXDDqCTCucOqCjNQMzNIw41EwqjDpcOVwq/Dvy7Ci2UWwovCskIwXg7DkmRIwqrCpMO5wq0PV0nDmAnCpcOtOsOjHWHDr2HCscK9Oh82eMKOZMOyCSoVXmVFH8K3VMOpDMKAUMKRw7Jtw7MVLMKmKmxKHMK2LmnDsidmwrsZehY6R8Knw40ow4VEwpgnQ8O1WywGUsKtwobCp8OwTsONeMOSwpPCsmjCrMKDcCsfEsKvPMOlfiLDnkvCqcO3wrDCmATCiMKyZcKSwprCtMK1wo/Du8O8aMOJwoDCscKew7vDlBsPwrvCqRLCq3thw7geFsOTwoYMIMKGwoALbBwiw4kZw54VUwVBwqzClURcwq0wwo3DvhUsJsKBQ8KIwpXDkcOZTQ/DsSXDrjAtwrAVWjnCqMKdSnAMwp1PL8Krw7pEWsOMw7nDt1gMDcKGwqFHXcO5w4zCp8KOfsKeWhUGw4PDg8KxBxt9w6LDsjHClH/Ci8OFwqwZwpXDucO2woAHLsOVw4PCuMKeZ8KQYhFHwqLChMKwwopJLATDugoWwpPDpiLCv0zDgcKpwp7Cg8K4w6BCw5zDg8KPEmjCkmDDkcKUwrwSwpTDt33Dr8Ovw4ZiV8OUwr7DpTDDuMOdHMO2V1PDk8KHw5/CpUrDtcK7f8O8wrzDqn7Cvj4OQVAQwoFQwpREUMKCAAjDosODw4/Cq3haw658D3wEMAJESAAHQRggcATCvMOewpp/wr7DmgnDgCDChC5fwq8Tf1pUwp3CrsKjw4vDt2B5w7/DucKxwqTCn1fDi1h9wpNYwpRDMApDw4vDgl7Cpn/CvD3DqzclXifCgsK/M8OrSsKLP8Kvw5rDq3LDkSVKw7jClSwRGCcgECZ+fcKtEsK7w5oiNnXDqSDDsFHCkcO9w5Riwp08ckQlHMOkVsK2dsOhw7HDn8OhZ8KQw7zCiMKjAArCo8KLwo9IDEIRw6zDvjTDl8OqWMKnC8Kpw5wNLAxkwrB1P8OLFzHClB1JBcKiQ8K7fS9Dw79zwrPDm3oEcSpDFDlkw4khwqXChXUywpsxwqXCj8O7clTCtj10wq8aw57Dk8OsKn05woMzwr0Rwo7CpCTCr8OVw40ew6rDpCImTcOtw6LDsU0ww5LCq8O3N8K7M8K6UMKHw5jDkA4qw6PDs8KlwoHCq8OxMGnDk1TChVDDhgoKBsO+VsKze8Kqw7UcwpXCj8OtPiVGw4NDBcOEwpcFwprCksKsw5ocOm8pW1fDr292T2Nswp3CpS4xw4UQwqknfQIrcsKAehplwqUNwqzDtRdkw7XDvmYXw6rCqTjCjcO2w7rChTnDhMOEw7ZMw4vDhMKoeMOLwqvCkFXCjT/Dr8Ohw5XDu8KbXTVAQmYawqzDmMKWChLDtMK3w53CvmMHMsKMwrbCjgZmwooHwq7DnsOfw6zCusKwI1HClitpTsKVHhHDhTrCk1LCl8Kycn7Dnhx2wrV2Un7Cq8OZLTXDt3wIZMOec8OgIA4Gwptzw4LDiA1lbARcRsOvw5Rpw7XDvmbCl8O3RMK0PsOkUyzDgcKJw6fCucKqVBXCmcOdUzJSw7PChglBw6nDqm/DmMOsLkXDpsOpesOiw7TCh8OrShLDvnDDu310wp7CpyPChB/Do8OuwqzCtsKuwodMO8KDw4Nqw4hpwqjCgsOgWzdfw5PDnVPDp1lBfMKRw7FdGwAjT8Khw5oBHRkEQMOwMD06Sm91w7bDuzrDjxvChsKiwp3ClD3DosKLKcOqbsOren7Dkgt6PGbCpzQlw7ZwUsOuwrACc0Ukw6d+C3s2wq7DusO4w4AKw4jDgRlLwpzCksO5ZsKzw53DucKmasKZw5zDrEcgw70Vw5hzN8O9woZVwp3DkQ7CgcKqEmHCo8KxNsKaM8Onw7oew6dKBx3Cm8Kvw4AeH8KNSGUPYC7DisK0w5AKwrNBQcKZw43Cq8KgWmjDm8OLGF/CvgJ7YTbDr0XCjsKCasOaw4xbw64gw5rCkMOebUNawoguNcKrworDgMOmd8KxNzzDuXjCpCvDmlESd8KpbCgSVMKoIcKqd2ROwoPDgcKBBk03wqbCv13ClsKPw5l9wrt/w43DuMOeS1Z/w7LDicOOUht8eMK5wr5pw7pTw4rDpsOzDcKxFsOxfMOKB8KeMUzCpXAhBAYrwo/DnsKow6Zlw7DDoiN9wrwfwrzCnMOJL27CiMOYW8KmJMO3MGZwPRXDhcKaLipsw67CojpzwqwawoXCkS3CnMOHw6t7OX1DwoRvfcK2IQbDmyTDpF5VZTPDrxjDriTCkWVKAMOOwoXCq3zCgjUxw588wq/DpRQcZcOxLcK4NiPDv8Kqw6pmwqArwppvDHTDllzCj05iw4XDlzkndXzDncOtB8KHw5dyw4bCiQrCqsKtwrt7GsOfDMK8S15VXcO8BVzCpydVw7TDhS9THzQ0UR3Cm8KTwofCtQ55FCtXwqLDt8K4w61rw6jDtsOeEFELwrhOb1TDnRDDkT0ZwpgSGGfDsFJDworCkGonwoVSVH3CpyFDasOSRx3CsMK4w7otwrgWAHtPOC3CnsOcLsOxwq7DgMOUAsKkZGLDocOqwrjCrEwUdcOywoTCvRFvwqLCpXVGwp42wqjDs8ODw603A8KfN8KowqAwZsKuwqlkwpvCoSfDvAI6CAcgwrE9wofCqMK2wp3DkRwyXlZ1M8Oww6/CskHCpVnCksKWw4vDlcK/BS3DtsKnwoPDtl8cwocALwfCsSTDtMKpIwLDiT90HMKSw5rCiMOIKsO8OSDDlFbDjsO5wrRwwqZ+w4dpwoLCicODGsKVB8OpEzfDtF3Cv2w7SsOjAW7DliDCpMKwP8Kxw5llw6/CiMOHAzzDi27CqcK8wo8bw5BOEj5LB8KYw4rCpcKLwrDCr8OPwollwrA7w7skwpwtTMOTw5bDlXxGKVEcw7JbGsOdw6TCnjchw6UMQ8OTbsKWwpnDocKkwonDkiDCsMO8wrkIw5AGQTHDiilNNH7CpMOfwrMcAHcyBTF8MRbDlknCjzlxMyhuFcO1SMOYw4NMwofDnMK5CDp/ccOzAsOebl48GMOSKQ4Xw616HcKLZRDCjSBxLsKmFlkfS8KmZGLDvCXCk8ONYcOKwqwkw77DncOCccKbw4oWbRXChGvDthBHdTbDoGXCmGFBSsKec0bCozrDqUMuwofDnsOiwrLChsOIwpzDsTtSw5nCt8KpPcKbDFXCj8KswrZww4BSw6XDj8K+w54+FcKOwqfDn8OHw6XCkgrCqcK/wo3DqUjDrMKKLcK/NcKUw53DmMOVOV/CicKlGml2c8OnwrDCm2PDvi7CuGzCr8KYw7zCjy/CosOzw484wqbDvMKWw6jDnMOGLcK6acOZwrXCoAnCqMKIcBfCmGAoFmbDjcKKYj09ZsKGJ3TCtsK0LyMiGDdewqlbwppFwqDCjRnDq8KAw4jDi2I+cgYbf0XDocO6w5w0NnvDg8K1I8KgQTHCrsOVwoQsVzzDnVbDucKmwpTCiSljUGfDvcKmcH3CgsOGcFjCuy1JU2HDjVvDjcOaDsOHUMOqwqrDgGUNw7cgwqjDqxPDv1TCuMK2D2jDnMO2w5bDp8OCVSFlYMKfGsK6w4APGUhzcsKoKUU8wrV+c15vdMOZwr7Ct8OAwpPDvlnDocO6BcOswpvDlVYUwqnDgFvCq3ovwojCpsONAnVWJ20CBcKMwpnDu8KCw70Vw5g3dsOawpZNasO5wozCrcKXwo0xwovCgcKaw4vCp3Jow4PCvDLCjMOzRsO/CsOswqPCssKFTQhrwqjDrMKRA8OjGcKyw4vCsAVrw4AJDE3CtnbDusOmb1XCuMO6dcOfw5fDlcKXIcO3w6dXwrHDv8K/wpBjw45HbVPCk0gfZlDCvGExwr86bWo8ZMO0RgsvKgY9QQ7DnSd8FCvCgMKsLsKVLcOAw5fDkkDDjx5dW8KXLMO0wpvDiDHDngc5ZsK/LT5Lw5IZwoRSF8OmL2bDjsOjc8K3w5NawpnCmsOhVsKlUcOfYMKaw5bDpx9pwpTCkcO7w6whV8OWUsK2X1MbTGAowpfDocOSanvDnsKfZMKpw5DCp8KARDEsecOINcK6w7nDtnwnBiEgw5HDrQTCnggmDyRhPwlSw63ClAPCo8O4w4LCqBfDt8KCM3Rza8O0wo3Dl0x2wo8Iw77DmcOSw5cXwqPCkcOyw5Z0wqLCmT5Mwr7CoEfDoxRawoQUDF7ClBNRw7daBsKjw7EDX8OfeAsJw4rDrMO0TcKTGH9JYsOkw5NpMsKIw77CoRzCrsKaCsKoYWXCtx/CrMOROsOEw5k+wqASDmfCl8OSw65Sw6rCgho9w6XCsMKCR8K5NwbDmToNw5YIwqrCgxpCKjPDrzbCm8Kow60pw6HDkMOew5rDiMK/w5bDvcOew6lUZsKBw5dnw7XDscO7KlvDqsKww7nDk0nDkH3CiSkww7HDthYUWMKFw7IkwpkSwrhaNWouSsK6dMKUwrzDpsKQwr4PZsOrw7NewrEOXRY9w5LCnsKzeUzDt8Kgw5xUMcOyEARbMW3CsD3CusKPIsKew5d1w7Y4w55yXBkJw4XDqkMrfUPDvMKKRMKuL8O0FMKdw5XCvsORwqTCqg7CvcOdwoFqwrvDvgx5ex5yHnIVOsOFb8KOw7jDhH0SSFzDncOswpnDhj/Ch8K+UELChQXDlMK2w6/ClcOQwpo8Bn8BEMOAwo84QcKiw4BywoEICcKiCAgtwqHDgMKBZSIBw4PDpHIHB1DDqBHCinN2wrwdSsO8w5HDrCfDgA8gwoF/ABHDsHEOw6HDi8KBZgxVEBfDplAcJ8KndVlhY8OUwrzCvx3CghBHw4bCp8K0HMOLwrHDgcKYwr4Sw7dowq/DuMOIwqYfKmfCq8ONw5Z+dMOmPlsTw6/CiznDiHXCpjXDvMOQwr7CicKBNkbCgmLCnWfCkxoZwpTCiMKwY8K+w6EVw6kSwrVUMsOZFS3DnWJ3wpM7WsOqwpvCmMOnwqLCrcKaSEkrClbDmsOpwqVieHk2SsOTPw7DhDHDkxXDoybCpznDp8OOwqrCsSh5Q8Ktw4R8wojCq13CmsKAEhfCoDbDihLDkMOJwrfCt8KTw43DswbCqsOrw5bCt8KPwrnDp8KHdRUdw7/CqsKwwrcKBcOsw6XDjWXCjhJjd8Ocw4ZIR8KxLlbDmznCjMKqwrBxw4jCnsOCTgfDvMOkw7bDrsOuaApJw5DDtsOSRcOOGcK0E2nDr2TCssK0LcO2w68LO23CsMKAZXdWw7o4B8OZSEvCrCsbwprCpnpvRwdywpsHw77CssKAwpPDk8Ojw4llPcKYwrfDsMOtcgHCsHbDgsO0w6ZEw7F4wph0wpnDk2fDkMOSAGvCnMKiXWZbJsKfwqx1BA7DlHAub3J1IsOJViJuw5/CpEvClgVyGsOWw5BlM8KtwpXDisK0XUPDo8OTeMO0UWQQM3bCicO1Nw97HEXDvV8Vw7PCucOewp/DhGpHwrYOP8OxwpDCh8KkwphswonDocOZEsOXfghQw7jDuSnDpsOpSHTDrlo+wo5Rw4PCqQV7QnQHwpzDpBjDocO0woLDlsOmw7PDvMK+wpjDi3LCsMKzw6rChn8Dw7V5w6NETsKKwoPDukgxwoANw603wqPCu1VdwqQ3eEXDjsOGNsK6w4XDrjjDi8KCwpXDimTDsihhwrA9wr8OwrfCqsKVwrnDhsOcwoddPsKOdi3DjyUvw60LScK/w6TDmSfCihAlw7zCs8OnccOnSMK9dFbCtcKhw7tTwoPCiRIaw60YQ8KVwoPCgytuw6PDrGx/w7vCmMKnwpEXw74ZMcKHw5Alw6gQw7IBw4UeMSfDgkvCncKzwrvDk8KZw5/DpwctEhLCucOtwpM8GUl+w5IDNMKfwp5iHsO4w4AJAxFqw5/DqMOadmsUwrjCmCLDtmYPdMO6wobCncOMw7N4w5PDusOdw7XDn8KOw5HCng83wqPDo0B9wrJFLi7Dk8Kbwr3Di8KDWzjCmMOsw53DnFzDvytpwqnCnyAUwrvClsKVwp/DnsOrw6tfwofCr8OOw7TCg8OiC8K1w5gyfsKrw7Jewp1ieknDtB/DoMOqw5fDvwPCp2cIwpY=]]></gravitDesigner:gravitGraphicSource></svg>

<svg xmlns="http://www.w3.org/2000/svg" xmlns:xlink="http://www.w3.org/1999/xlink" style="isolation:isolate" width="256" height="256"><switch><g><path d="M78.924 15.5c-35.296 0-39.094 3.625-38.921 38.994v146.012c-.173 35.369 3.625 38.994 38.921 38.994h98.157c35.297 0 38.922-3.625 38.922-38.994V54.494c0-35.369-3.625-38.994-38.922-38.994H78.924z" fill="none" vector-effect="non-scaling-stroke" stroke-width="4" stroke="#000" opacity=".2"/><defs><filter id="a" x="-200%" y="-200%" width="400%" height="400%" filterUnits="objectBoundingBox" color-interpolation-filters="sRGB"><feGaussianBlur xmlns="http://www.w3.org/2000/svg" stdDeviation="2.12"/></filter></defs><path d="M78.924 16.5c-35.296 0-39.094 3.625-38.921 38.994v146.012c-.173 35.369 3.625 38.994 38.921 38.994h98.157c35.297 0 38.003-3.637 38.922-38.994V55.494c0-35.369-3.625-38.994-38.922-38.994H78.924z" opacity=".1" filter="url(#a)"/><defs><filter id="b" x="-200%" y="-200%" width="400%" height="400%" filterUnits="objectBoundingBox" color-interpolation-filters="sRGB"><feGaussianBlur xmlns="http://www.w3.org/2000/svg" stdDeviation="8.48"/></filter></defs><g opacity=".3" filter="url(#b)"><linearGradient id="c" x1="-.068" y1=".031" x2=".954" y2="1.053" gradientTransform="matrix(176.0054 0 0 224 39.997 16.5)" gradientUnits="userSpaceOnUse"><stop offset="0%" stop-opacity=".588"/><stop offset="88%" stop-opacity="0"/><stop offset="100%"/></linearGradient><path d="M78.924 16.5c-35.296 0-39.094 3.625-38.921 38.994v146.012c-.173 35.369 3.625 38.994 38.921 38.994h98.157c35.297 0 38.922-3.625 38.922-38.994V55.494c0-35.369-3.625-38.994-38.922-38.994H78.924z" fill="url(#c)"/></g><path d="M78.924 15.5c-35.296 0-39.094 3.625-38.921 38.994v146.012c-.173 35.369 3.625 38.994 38.921 38.994h98.157c35.297 0 38.922-3.625 38.922-38.994V54.494c0-35.369-3.625-38.994-38.922-38.994H78.924z" fill="#5D5D5D"/><path d="M78.925 15.5c-35.297 0-39.095 3.626-38.922 38.994v2C39.83 21.126 43.628 17.5 78.925 17.5h98.156c35.297 0 38.922 3.626 38.922 38.994v-2c0-35.368-3.625-38.994-38.922-38.994H78.925z" fill="#FFF" opacity=".6"/><path d="M128.003 15.5v224h49.078c35.297 0 38.003-3.636 38.922-38.993V54.493c0-35.368-3.625-38.993-38.922-38.993h-49.078z" fill="#FFF" opacity=".1"/><path d="M156.003 239.5l60-60v22.484c-.053 33.996-3.803 37.516-38.174 37.516h-21.826z" fill="#FFF" opacity=".2"/><path d="M66.996 70.834l66.129 66.129V94.676L66.996 70.834zM137.187 96.484v38.43l27.58-25.893-27.58-12.537zM117.479 127.496l-30.56 57.67 44.329-44.33-13.77-13.34z" fill="#51BB8D"/><path d="M143.135 94.973l45.869 20.619-10.098-20.62h-35.771z" fill="#FB7C38"/></g><foreignObject requiredExtensions="http://ns.gravit.io/"> </foreignObject></switch> </svg>
